X:1
T:Psalm 102
T:V 12
L:1/4
M:14/4
I:linebreak $
K:C
V:1 treble nm="Pipe Organ" snm="Org."
V:1
 A2 G2 A B c B A2 G3 z |$ A2 G2 E F G E F2 E3 z |$ E2 A2 G G A B c2 B3 z |$ G2 A2 G E G2 F2 E4 |] %4
w: HEER, in plaas van droef te kla- e|sien ons on- ge- me- te da- e,|wan- neer eind’- lik kro- os en kind|le- wens- vol- heid by U vind.|

